packages/calcite-ui-icons/icons/dashboard-graph-32.svg

<svg xmlns="http://www.w3.org/2000/svg" viewBox="0 0 32 32"><path d="M27 8h-1V7h1v1zm3-3v23H2V5h28zM3 6v4h26V6H3zm26 21V11H3v16h26zm-9-12h4v10h-4V15zm1 9h2v-8h-2v8zm-7-11h4v12h-4V13zm1 11h2V14h-2v10zm-7-6h4v7H8v-7zm1 6h2v-5H9v5z"/><path fill="none" d="M0 0h32v32H0z"/></svg>

<?xml version="1.0" encoding="UTF-8"?><svg id="icons" xmlns="http://www.w3.org/2000/svg" viewBox="0 0 32 32"><defs><style>.cls-1{fill:none;}</style></defs><path d="M27,8h-1v-1h1v1ZM30,5v23H2V5h28ZM3,6v4h26v-4H3ZM29,27V11H3v16h26ZM20,15h4v10h-4v-10ZM21,24h2v-8h-2v8ZM14,13h4v12h-4v-12ZM15,24h2v-10h-2v10ZM8,18h4v7h-4v-7ZM9,24h2v-5h-2v5Z"/><rect class="cls-1" width="32" height="32"/></svg>
